rospo-icon-theme-classic-common/22x22/apps/zynaddsubfx.svg

<svg height="22" viewBox="0 0 22 22" width="22" xmlns="http://www.w3.org/2000/svg"><path d="m4.0201159 1.4999863a3.0003363 3.0003363 0 0 0 -1.7998267 5.4151046l3.0605839 2.2549105-3.7773894 5.6660836a3.0003363 3.0003363 0 0 0 2.2822541 4.656306l14.0001702 1.000012a3.0003363 3.0003363 0 0 0 1.934593-5.450261l-3.333048-2.333036 3.934618-4.8096281a3.0003363 3.0003363 0 0 0 -2.002954-4.8828717l-14.0001695-1.5000181a3.0003363 3.0003363 0 0 0 -.2988316-.0166017z" opacity=".2"/><path d="m4.0201159.99976441a3.0003363 3.0003363 0 0 0 -1.7998267 5.41510449l3.0605839 2.2549103-3.7773894 5.6660838a3.0003363 3.0003363 0 0 0 2.2822541 4.656306l14.0001702 1.000012a3.0003363 3.0003363 0 0 0 1.934593-5.450261l-3.333048-2.333036 3.934618-4.8096282a3.0003363 3.0003363 0 0 0 -2.002954-4.8828715l-14.0001695-1.5000182a3.0003363 3.0003363 0 0 0 -.2988316-.01660169z" fill="#4f4f4f"/><path d="m3.9996076 16.500168 4.0000484-6.000073 10.000121 7.000085z" opacity=".2"/><path d="m3.9996076 15.999945 4.0000484-6.0000716 10.000121 7.0000846z" fill="#1bd9a5"/><path d="m3.9996076 4.5000227 14.0001694 1.5000182-4.500054 5.5000661z" opacity=".2"/><path d="m3.9996076 3.9998007 14.0001694 1.5000181-4.500054 5.5000662z" fill="#1cadf4"/><g fill="#fff"><path d="m4.0201159.99976441a3.0003363 3.0003363 0 0 0 -3.0068725 3.23636709 3.0003363 3.0003363 0 0 1 3.0068725-2.7363611 3.0003363 3.0003363 0 0 1  .2988316.0166017l14.0001695 1.5000182a3.0003363 3.0003363 0 0 1 2.668001 2.7510098 3.0003363 3.0003363 0 0 0 -2.668001-3.2510159l-14.0001695-1.5000181a3.0003363 3.0003363 0 0 0 -.2988316-.01660169zm1.0371215 8.00497999-3.5537537 5.3311186a3.0003363 3.0003363 0 0 0 -.4912169 1.892601 3.0003363 3.0003363 0 0 1  .4912169-1.392595l3.7773894-5.6660836zm11.5899846 3.3857826-.259769.318363 3.333048 2.333036a3.0003363 3.0003363 0 0 1 1.26564 2.201199 3.0003363 3.0003363 0 0 0 -1.26564-2.701205z" opacity=".1"/><path d="m7.999656 9.9998734-4.0000484 6.0000716.3183634.02246 3.681685-5.522527 9.204213 6.443437.795908.05664-10.000121-7.0000846z" opacity=".1"/><path d="m3.9996076 3.9998007.7939551.584968 12.8302333 1.3750167.375981-.4599666z" opacity=".1"/></g></svg>

<svg xmlns="http://www.w3.org/2000/svg" width="22" height="22" version="1.1" viewBox="0 0 22 22">
 <path style="opacity:0.2" d="M 4.0201159,1.4999863 A 3.0003363,3.0003363 0 0 0 2.2202892,6.9150909 L 5.2808731,9.1700014 1.5034837,14.836085 a 3.0003363,3.0003363 0 0 0 2.2822541,4.656306 l 14.0001702,1.000012 a 3.0003363,3.0003363 0 0 0 1.934593,-5.450261 L 16.387453,12.709106 20.322071,7.8994779 A 3.0003363,3.0003363 0 0 0 18.319117,3.0166062 L 4.3189475,1.5165881 A 3.0003363,3.0003363 0 0 0 4.0201159,1.4999864 Z"/>
 <path style="fill:#4f4f4f" d="M 4.0201159,0.99976441 A 3.0003363,3.0003363 0 0 0 2.2202892,6.4148689 L 5.2808731,8.6697792 1.5034837,14.335863 a 3.0003363,3.0003363 0 0 0 2.2822541,4.656306 L 17.785908,19.992181 A 3.0003363,3.0003363 0 0 0 19.720501,14.54192 L 16.387453,12.208884 20.322071,7.3992558 A 3.0003363,3.0003363 0 0 0 18.319117,2.5163843 L 4.3189475,1.0163661 A 3.0003363,3.0003363 0 0 0 4.0201159,0.99976441 Z"/>
 <path style="opacity:0.2" d="M 3.9996076,16.500168 7.999656,10.500095 17.999777,17.50018 Z"/>
 <path style="fill:#1bd9a5" d="M 3.9996076,15.999945 7.999656,9.9998734 17.999777,16.999958 Z"/>
 <path style="opacity:0.2" d="M 3.9996076,4.5000227 17.999777,6.0000409 13.499723,11.500107 Z"/>
 <path style="fill:#1cadf4" d="M 3.9996076,3.9998007 17.999777,5.4998188 13.499723,10.999885 Z"/>
 <path style="opacity:0.1;fill:#ffffff" d="M 4.0201159,0.99976441 A 3.0003363,3.0003363 0 0 0 1.0132434,4.2361315 3.0003363,3.0003363 0 0 1 4.0201159,1.4997704 3.0003363,3.0003363 0 0 1 4.3189475,1.5163721 L 18.319117,3.0163903 A 3.0003363,3.0003363 0 0 1 20.987118,5.7674001 3.0003363,3.0003363 0 0 0 18.319117,2.5163842 L 4.3189475,1.0163661 A 3.0003363,3.0003363 0 0 0 4.0201159,0.99976441 Z M 5.0572374,9.0047444 1.5034837,14.335863 A 3.0003363,3.0003363 0 0 0 1.0122668,16.228464 3.0003363,3.0003363 0 0 1 1.5034837,14.835869 L 5.2808731,9.1697854 5.0572374,9.0047444 Z m 11.5899846,3.3857826 -0.259769,0.318363 3.333048,2.333036 a 3.0003363,3.0003363 0 0 1 1.26564,2.201199 3.0003363,3.0003363 0 0 0 -1.26564,-2.701205 l -3.073279,-2.151393 z"/>
 <path style="opacity:0.1;fill:#ffffff" d="m 7.999656,9.9998734 -4.0000484,6.0000716 0.3183634,0.02246 3.681685,-5.522527 9.204213,6.443437 0.795908,0.05664 L 7.999656,9.9998704 Z"/>
 <path style="opacity:0.1;fill:#ffffff" d="M 3.9996076,3.9998007 4.7935627,4.5847687 17.623796,5.9597854 17.999777,5.4998188 3.9996076,3.9998007 Z"/>
</svg>
